content/intro-probability/images/cov-examples.svg

<svg height="107.34pt" viewBox="0 0 340.16 107.34" width="340.16pt" xmlns="http://www.w3.org/2000/svg" xmlns:xlink="http://www.w3.org/1999/xlink"><clipPath id="a"><path d="m23 105h2v2.339844h-2zm0 0"/></clipPath><clipPath id="b"><path d="m22 105h3v2.339844h-3zm0 0"/></clipPath><clipPath id="c"><path d="m140 105h2v2.339844h-2zm0 0"/></clipPath><clipPath id="d"><path d="m258 105h2v2.339844h-2zm0 0"/></clipPath><symbol id="e" overflow="visible"><path d="m.25-1.046875c0 .234375-.015625.390625-.09375.765625-.03125.15625-.03125.1875-.046875.265625.171875.09375.375.140625.515625.140625.390625 0 .859375-.34375 1.234375-.90625l.90625-1.390625.125.828125c.15625 1.015625.4375 1.46875.859375 1.46875.265625 0 .65625-.203125 1.03125-.546875l.578125-.515625-.09375-.234375c-.4375.359375-.734375.53125-.921875.53125s-.34375-.109375-.453125-.34375-.25-.671875-.3125-1.03125l-.203125-1.203125.421875-.578125c.546875-.78125.875-1.0625 1.25-1.0625.1875 0 .328125.109375.390625.28125l.171875-.046875.171875-1.015625c-.140625-.078125-.25-.125-.359375-.125-.46875 0-.953125.4375-1.6875 1.53125l-.453125.65625-.0625-.5625c-.140625-1.1875-.46875-1.625-1.171875-1.625-.3125 0-.578125.09375-.6875.25l-.6875 1 .203125.109375c.359375-.40625.59375-.5625.828125-.5625.390625 0 .65625.484375.859375 1.65625l.125.75-.46875.734375c-.515625.796875-.921875 1.1875-1.265625 1.1875-.171875 0-.3125-.046875-.328125-.109375l-.140625-.34375zm0 0"/></symbol><symbol id="f" overflow="visible"><path d="m-.078125 2.15625c-.015625.078125-.015625.15625-.015625.203125 0 .515625.4375.9375.984375.9375 1.265625 0 2.578125-1.484375 3.28125-3.6875l1.6875-5.265625-.140625-.109375c-.34375.140625-.609375.203125-.875.234375l-.421875 1.578125c-.140625.5625-.5625 1.4375-.953125 2.015625-.421875.609375-1 1.140625-1.265625 1.140625-.140625 0-.25-.28125-.25-.578125l.015625-.15625.1875-2.3125c.015625-.375.046875-.828125.046875-1.171875 0-.53125-.09375-.75-.296875-.75-.15625 0-.3125.09375-.890625.484375l-.984375.671875.140625.203125.59375-.34375.046875-.046875c.125-.0625.203125-.109375.25-.109375.171875 0 .265625.234375.265625.625 0 .015625 0 .078125-.015625.1875l-.203125 2.90625-.015625.46875c0 .5.21875.84375.515625.84375.453125 0 1.453125-1.015625 2.34375-2.359375l-.578125 2.046875c-.609375 2.109375-1.21875 2.984375-2.046875 2.984375-.421875 0-.75-.328125-.75-.734375 0-.0625.015625-.15625.03125-.265625l-.125-.046875zm0 0"/></symbol><path d="m922.070312 236.251563h-901.054687" style="fill:none;stroke-width:1.99966;stroke-linecap:round;stroke-linejoin:round;stroke:#000;stroke-miterlimit:10" transform="matrix(.1 0 0 -.1 0 107.34)"/><path d="m942.070312 236.251563-20 5.390625v-10.742188zm0 0" stroke="#000" stroke-linecap="round" stroke-linejoin="round" stroke-miterlimit="10" stroke-width="1.99966" transform="matrix(.1 0 0 -.1 0 107.34)"/><path d="m1.015625 236.251563 20-5.351563v10.742188zm0 0" stroke="#000" stroke-linecap="round" stroke-linejoin="round" stroke-miterlimit="10" stroke-width="1.99966" transform="matrix(.1 0 0 -.1 0 107.34)"/><path d="m236.25 20.978125v901.09375" style="fill:none;stroke-width:1.99966;stroke-linecap:round;stroke-linejoin:round;stroke:#000;stroke-miterlimit:10" transform="matrix(.1 0 0 -.1 0 107.34)"/><g clip-path="url(#a)"><path d="m23.625 107.238281.535156-1.996093h-1.070312zm0 0"/></g><g clip-path="url(#b)"><path d="m236.25 1.017188 5.351562 19.960937h-10.703124zm0 0" style="fill:none;stroke-width:1.99966;stroke-linecap:round;stroke-linejoin:round;stroke:#000;stroke-miterlimit:10" transform="matrix(.1 0 0 -.1 0 107.34)"/></g><g stroke="#000" stroke-linecap="round" stroke-linejoin="round" stroke-miterlimit="10" stroke-width="1.99966" transform="matrix(.1 0 0 -.1 0 107.34)"><path d="m236.25 942.071875-5.351562-20h10.703124zm0 0"/><path d="m2098.398438 236.251563h-901.09375" fill="none"/><path d="m2118.398438 236.251563-20 5.390625v-10.742188zm0 0"/><path d="m1177.304688 236.251563 20-5.351563v10.742188zm0 0"/><path d="m1412.578125 20.978125v901.09375" fill="none"/></g><g clip-path="url(#c)"><path d="m1412.578125 1.017188 5.390625 19.960937h-10.742188zm0 0" stroke="#000" stroke-linecap="round" stroke-linejoin="round" stroke-miterlimit="10" stroke-width="1.99966" transform="matrix(.1 0 0 -.1 0 107.34)"/></g><path d="m1412.578125 942.071875-5.351563-20h10.742188zm0 0" stroke="#000" stroke-linecap="round" stroke-linejoin="round" stroke-miterlimit="10" stroke-width="1.99966" transform="matrix(.1 0 0 -.1 0 107.34)"/><path d="m3274.726562 236.251563h-901.09375" style="fill:none;stroke-width:1.99966;stroke-linecap:round;stroke-linejoin:round;stroke:#000;stroke-miterlimit:10" transform="matrix(.1 0 0 -.1 0 107.34)"/><path d="m3294.726562 236.251563-20 5.390625v-10.742188zm0 0" stroke="#000" stroke-linecap="round" stroke-linejoin="round" stroke-miterlimit="10" stroke-width="1.99966" transform="matrix(.1 0 0 -.1 0 107.34)"/><path d="m2353.632812 236.251563 20-5.351563v10.742188zm0 0" stroke="#000" stroke-linecap="round" stroke-linejoin="round" stroke-miterlimit="10" stroke-width="1.99966" transform="matrix(.1 0 0 -.1 0 107.34)"/><path d="m2588.90625 20.978125v901.09375" style="fill:none;stroke-width:1.99966;stroke-linecap:round;stroke-linejoin:round;stroke:#000;stroke-miterlimit:10" transform="matrix(.1 0 0 -.1 0 107.34)"/><g clip-path="url(#d)"><path d="m2588.90625 1.017188 5.351562 19.960937h-10.703124zm0 0" stroke="#000" stroke-linecap="round" stroke-linejoin="round" stroke-miterlimit="10" stroke-width="1.99966" transform="matrix(.1 0 0 -.1 0 107.34)"/></g><path d="m2588.90625 942.071875-5.351562-20h10.703124zm0 0" stroke="#000" stroke-linecap="round" stroke-linejoin="round" stroke-miterlimit="10" stroke-width="1.99966" transform="matrix(.1 0 0 -.1 0 107.34)"/><use x="97.0801" xlink:href="#e" y="91.9798"/><use x="26.2801" xlink:href="#f" y="7.2599"/><use x="214.8001" xlink:href="#e" y="91.9798"/><use x="144.0001" xlink:href="#f" y="7.2599"/><use x="332.4001" xlink:href="#e" y="91.9798"/><use x="261.6001" xlink:href="#f" y="7.2599"/></svg>

<?xml version="1.0" encoding="UTF-8"?>
<svg xmlns="http://www.w3.org/2000/svg" xmlns:xlink="http://www.w3.org/1999/xlink" width="340.16pt" height="107.34pt" viewBox="0 0 340.16 107.34" version="1.1">
<defs>
<g>
<symbol overflow="visible" id="glyph0-0">
<path style="stroke:none;" d=""/>
</symbol>
<symbol overflow="visible" id="glyph0-1">
<path style="stroke:none;" d="M 0.25 -1.046875 C 0.25 -0.8125 0.234375 -0.65625 0.15625 -0.28125 C 0.125 -0.125 0.125 -0.09375 0.109375 -0.015625 C 0.28125 0.078125 0.484375 0.125 0.625 0.125 C 1.015625 0.125 1.484375 -0.21875 1.859375 -0.78125 L 2.765625 -2.171875 L 2.890625 -1.34375 C 3.046875 -0.328125 3.328125 0.125 3.75 0.125 C 4.015625 0.125 4.40625 -0.078125 4.78125 -0.421875 L 5.359375 -0.9375 L 5.265625 -1.171875 C 4.828125 -0.8125 4.53125 -0.640625 4.34375 -0.640625 C 4.15625 -0.640625 4 -0.75 3.890625 -0.984375 C 3.78125 -1.21875 3.640625 -1.65625 3.578125 -2.015625 L 3.375 -3.21875 L 3.796875 -3.796875 C 4.34375 -4.578125 4.671875 -4.859375 5.046875 -4.859375 C 5.234375 -4.859375 5.375 -4.75 5.4375 -4.578125 L 5.609375 -4.625 L 5.78125 -5.640625 C 5.640625 -5.71875 5.53125 -5.765625 5.421875 -5.765625 C 4.953125 -5.765625 4.46875 -5.328125 3.734375 -4.234375 L 3.28125 -3.578125 L 3.21875 -4.140625 C 3.078125 -5.328125 2.75 -5.765625 2.046875 -5.765625 C 1.734375 -5.765625 1.46875 -5.671875 1.359375 -5.515625 L 0.671875 -4.515625 L 0.875 -4.40625 C 1.234375 -4.8125 1.46875 -4.96875 1.703125 -4.96875 C 2.09375 -4.96875 2.359375 -4.484375 2.5625 -3.3125 L 2.6875 -2.5625 L 2.21875 -1.828125 C 1.703125 -1.03125 1.296875 -0.640625 0.953125 -0.640625 C 0.78125 -0.640625 0.640625 -0.6875 0.625 -0.75 L 0.484375 -1.09375 Z M 0.25 -1.046875 "/>
</symbol>
<symbol overflow="visible" id="glyph0-2">
<path style="stroke:none;" d="M -0.078125 2.15625 C -0.09375 2.234375 -0.09375 2.3125 -0.09375 2.359375 C -0.09375 2.875 0.34375 3.296875 0.890625 3.296875 C 2.15625 3.296875 3.46875 1.8125 4.171875 -0.390625 L 5.859375 -5.65625 L 5.71875 -5.765625 C 5.375 -5.625 5.109375 -5.5625 4.84375 -5.53125 L 4.421875 -3.953125 C 4.28125 -3.390625 3.859375 -2.515625 3.46875 -1.9375 C 3.046875 -1.328125 2.46875 -0.796875 2.203125 -0.796875 C 2.0625 -0.796875 1.953125 -1.078125 1.953125 -1.375 L 1.96875 -1.53125 L 2.15625 -3.84375 C 2.171875 -4.21875 2.203125 -4.671875 2.203125 -5.015625 C 2.203125 -5.546875 2.109375 -5.765625 1.90625 -5.765625 C 1.75 -5.765625 1.59375 -5.671875 1.015625 -5.28125 L 0.03125 -4.609375 L 0.171875 -4.40625 L 0.765625 -4.75 L 0.8125 -4.796875 C 0.9375 -4.859375 1.015625 -4.90625 1.0625 -4.90625 C 1.234375 -4.90625 1.328125 -4.671875 1.328125 -4.28125 C 1.328125 -4.265625 1.328125 -4.203125 1.3125 -4.09375 L 1.109375 -1.1875 L 1.09375 -0.71875 C 1.09375 -0.21875 1.3125 0.125 1.609375 0.125 C 2.0625 0.125 3.0625 -0.890625 3.953125 -2.234375 L 3.375 -0.1875 C 2.765625 1.921875 2.15625 2.796875 1.328125 2.796875 C 0.90625 2.796875 0.578125 2.46875 0.578125 2.0625 C 0.578125 2 0.59375 1.90625 0.609375 1.796875 L 0.484375 1.75 Z M -0.078125 2.15625 "/>
</symbol>
</g>
<clipPath id="clip1">
  <path d="M 23 105 L 25 105 L 25 107.339844 L 23 107.339844 Z M 23 105 "/>
</clipPath>
<clipPath id="clip2">
  <path d="M 22 105 L 25 105 L 25 107.339844 L 22 107.339844 Z M 22 105 "/>
</clipPath>
<clipPath id="clip3">
  <path d="M 140 105 L 142 105 L 142 107.339844 L 140 107.339844 Z M 140 105 "/>
</clipPath>
<clipPath id="clip4">
  <path d="M 258 105 L 260 105 L 260 107.339844 L 258 107.339844 Z M 258 105 "/>
</clipPath>
</defs>
<g id="surface1">
<path style="fill:none;stroke-width:1.99966;stroke-linecap:round;stroke-linejoin:round;stroke:rgb(0%,0%,0%);stroke-opacity:1;stroke-miterlimit:10;" d="M 922.070312 236.251563 L 21.015625 236.251563 " transform="matrix(0.1,0,0,-0.1,0,107.34)"/>
<path style="fill-rule:nonzero;fill:rgb(0%,0%,0%);fill-opacity:1;stroke-width:1.99966;stroke-linecap:round;stroke-linejoin:round;stroke:rgb(0%,0%,0%);stroke-opacity:1;stroke-miterlimit:10;" d="M 942.070312 236.251563 L 922.070312 241.642188 L 922.070312 230.9 Z M 942.070312 236.251563 " transform="matrix(0.1,0,0,-0.1,0,107.34)"/>
<path style="fill-rule:nonzero;fill:rgb(0%,0%,0%);fill-opacity:1;stroke-width:1.99966;stroke-linecap:round;stroke-linejoin:round;stroke:rgb(0%,0%,0%);stroke-opacity:1;stroke-miterlimit:10;" d="M 1.015625 236.251563 L 21.015625 230.9 L 21.015625 241.642188 Z M 1.015625 236.251563 " transform="matrix(0.1,0,0,-0.1,0,107.34)"/>
<path style="fill:none;stroke-width:1.99966;stroke-linecap:round;stroke-linejoin:round;stroke:rgb(0%,0%,0%);stroke-opacity:1;stroke-miterlimit:10;" d="M 236.25 20.978125 L 236.25 922.071875 " transform="matrix(0.1,0,0,-0.1,0,107.34)"/>
<g clip-path="url(#clip1)" clip-rule="nonzero">
<path style=" stroke:none;fill-rule:nonzero;fill:rgb(0%,0%,0%);fill-opacity:1;" d="M 23.625 107.238281 L 24.160156 105.242188 L 23.089844 105.242188 Z M 23.625 107.238281 "/>
</g>
<g clip-path="url(#clip2)" clip-rule="nonzero">
<path style="fill:none;stroke-width:1.99966;stroke-linecap:round;stroke-linejoin:round;stroke:rgb(0%,0%,0%);stroke-opacity:1;stroke-miterlimit:10;" d="M 236.25 1.017188 L 241.601562 20.978125 L 230.898438 20.978125 Z M 236.25 1.017188 " transform="matrix(0.1,0,0,-0.1,0,107.34)"/>
</g>
<path style="fill-rule:nonzero;fill:rgb(0%,0%,0%);fill-opacity:1;stroke-width:1.99966;stroke-linecap:round;stroke-linejoin:round;stroke:rgb(0%,0%,0%);stroke-opacity:1;stroke-miterlimit:10;" d="M 236.25 942.071875 L 230.898438 922.071875 L 241.601562 922.071875 Z M 236.25 942.071875 " transform="matrix(0.1,0,0,-0.1,0,107.34)"/>
<path style="fill:none;stroke-width:35.9939;stroke-linecap:round;stroke-linejoin:round;stroke:rgb(54.492188%,0%,0%);stroke-opacity:1;stroke-miterlimit:10;" d="M 706.796875 306.8375 L 706.796875 306.8375 " transform="matrix(0.1,0,0,-0.1,0,107.34)"/>
<path style="fill:none;stroke-width:67.1886;stroke-linecap:round;stroke-linejoin:round;stroke:rgb(54.492188%,0%,0%);stroke-opacity:1;stroke-miterlimit:10;" d="M 330.351562 448.009375 L 330.351562 448.009375 " transform="matrix(0.1,0,0,-0.1,0,107.34)"/>
<path style="fill:none;stroke-width:33.5943;stroke-linecap:round;stroke-linejoin:round;stroke:rgb(54.492188%,0%,0%);stroke-opacity:1;stroke-miterlimit:10;" d="M 306.835938 353.907813 L 306.835938 353.907813 " transform="matrix(0.1,0,0,-0.1,0,107.34)"/>
<path style="fill:none;stroke-width:59.9899;stroke-linecap:round;stroke-linejoin:round;stroke:rgb(54.492188%,0%,0%);stroke-opacity:1;stroke-miterlimit:10;" d="M 259.804688 824.415625 L 259.804688 824.415625 " transform="matrix(0.1,0,0,-0.1,0,107.34)"/>
<path style="fill:none;stroke-width:1.99966;stroke-linecap:round;stroke-linejoin:round;stroke:rgb(0%,0%,0%);stroke-opacity:1;stroke-miterlimit:10;" d="M 2098.398438 236.251563 L 1197.304688 236.251563 " transform="matrix(0.1,0,0,-0.1,0,107.34)"/>
<path style="fill-rule:nonzero;fill:rgb(0%,0%,0%);fill-opacity:1;stroke-width:1.99966;stroke-linecap:round;stroke-linejoin:round;stroke:rgb(0%,0%,0%);stroke-opacity:1;stroke-miterlimit:10;" d="M 2118.398438 236.251563 L 2098.398438 241.642188 L 2098.398438 230.9 Z M 2118.398438 236.251563 " transform="matrix(0.1,0,0,-0.1,0,107.34)"/>
<path style="fill-rule:nonzero;fill:rgb(0%,0%,0%);fill-opacity:1;stroke-width:1.99966;stroke-linecap:round;stroke-linejoin:round;stroke:rgb(0%,0%,0%);stroke-opacity:1;stroke-miterlimit:10;" d="M 1177.304688 236.251563 L 1197.304688 230.9 L 1197.304688 241.642188 Z M 1177.304688 236.251563 " transform="matrix(0.1,0,0,-0.1,0,107.34)"/>
<path style="fill:none;stroke-width:1.99966;stroke-linecap:round;stroke-linejoin:round;stroke:rgb(0%,0%,0%);stroke-opacity:1;stroke-miterlimit:10;" d="M 1412.578125 20.978125 L 1412.578125 922.071875 " transform="matrix(0.1,0,0,-0.1,0,107.34)"/>
<g clip-path="url(#clip3)" clip-rule="nonzero">
<path style="fill-rule:nonzero;fill:rgb(0%,0%,0%);fill-opacity:1;stroke-width:1.99966;stroke-linecap:round;stroke-linejoin:round;stroke:rgb(0%,0%,0%);stroke-opacity:1;stroke-miterlimit:10;" d="M 1412.578125 1.017188 L 1417.96875 20.978125 L 1407.226562 20.978125 Z M 1412.578125 1.017188 " transform="matrix(0.1,0,0,-0.1,0,107.34)"/>
</g>
<path style="fill-rule:nonzero;fill:rgb(0%,0%,0%);fill-opacity:1;stroke-width:1.99966;stroke-linecap:round;stroke-linejoin:round;stroke:rgb(0%,0%,0%);stroke-opacity:1;stroke-miterlimit:10;" d="M 1412.578125 942.071875 L 1407.226562 922.071875 L 1417.96875 922.071875 Z M 1412.578125 942.071875 " transform="matrix(0.1,0,0,-0.1,0,107.34)"/>
<path style="fill:none;stroke-width:35.9939;stroke-linecap:round;stroke-linejoin:round;stroke:rgb(54.492188%,0%,0%);stroke-opacity:1;stroke-miterlimit:10;" d="M 1459.648438 259.80625 L 1459.648438 259.80625 " transform="matrix(0.1,0,0,-0.1,0,107.34)"/>
<path style="fill:none;stroke-width:52.7911;stroke-linecap:round;stroke-linejoin:round;stroke:rgb(54.492188%,0%,0%);stroke-opacity:1;stroke-miterlimit:10;" d="M 1789.023438 518.595313 L 1789.023438 518.595313 " transform="matrix(0.1,0,0,-0.1,0,107.34)"/>
<path style="fill:none;stroke-width:9.59838;stroke-linecap:round;stroke-linejoin:round;stroke:rgb(54.492188%,0%,0%);stroke-opacity:1;stroke-miterlimit:10;" d="M 1506.71875 800.9 L 1506.71875 800.9 " transform="matrix(0.1,0,0,-0.1,0,107.34)"/>
<path style="fill:none;stroke-width:59.9899;stroke-linecap:round;stroke-linejoin:round;stroke:rgb(54.492188%,0%,0%);stroke-opacity:1;stroke-miterlimit:10;" d="M 2000.742188 824.415625 L 2000.742188 824.415625 " transform="matrix(0.1,0,0,-0.1,0,107.34)"/>
<path style="fill:none;stroke-width:1.99966;stroke-linecap:round;stroke-linejoin:round;stroke:rgb(0%,0%,0%);stroke-opacity:1;stroke-miterlimit:10;" d="M 3274.726562 236.251563 L 2373.632812 236.251563 " transform="matrix(0.1,0,0,-0.1,0,107.34)"/>
<path style="fill-rule:nonzero;fill:rgb(0%,0%,0%);fill-opacity:1;stroke-width:1.99966;stroke-linecap:round;stroke-linejoin:round;stroke:rgb(0%,0%,0%);stroke-opacity:1;stroke-miterlimit:10;" d="M 3294.726562 236.251563 L 3274.726562 241.642188 L 3274.726562 230.9 Z M 3294.726562 236.251563 " transform="matrix(0.1,0,0,-0.1,0,107.34)"/>
<path style="fill-rule:nonzero;fill:rgb(0%,0%,0%);fill-opacity:1;stroke-width:1.99966;stroke-linecap:round;stroke-linejoin:round;stroke:rgb(0%,0%,0%);stroke-opacity:1;stroke-miterlimit:10;" d="M 2353.632812 236.251563 L 2373.632812 230.9 L 2373.632812 241.642188 Z M 2353.632812 236.251563 " transform="matrix(0.1,0,0,-0.1,0,107.34)"/>
<path style="fill:none;stroke-width:1.99966;stroke-linecap:round;stroke-linejoin:round;stroke:rgb(0%,0%,0%);stroke-opacity:1;stroke-miterlimit:10;" d="M 2588.90625 20.978125 L 2588.90625 922.071875 " transform="matrix(0.1,0,0,-0.1,0,107.34)"/>
<g clip-path="url(#clip4)" clip-rule="nonzero">
<path style="fill-rule:nonzero;fill:rgb(0%,0%,0%);fill-opacity:1;stroke-width:1.99966;stroke-linecap:round;stroke-linejoin:round;stroke:rgb(0%,0%,0%);stroke-opacity:1;stroke-miterlimit:10;" d="M 2588.90625 1.017188 L 2594.257812 20.978125 L 2583.554688 20.978125 Z M 2588.90625 1.017188 " transform="matrix(0.1,0,0,-0.1,0,107.34)"/>
</g>
<path style="fill-rule:nonzero;fill:rgb(0%,0%,0%);fill-opacity:1;stroke-width:1.99966;stroke-linecap:round;stroke-linejoin:round;stroke:rgb(0%,0%,0%);stroke-opacity:1;stroke-miterlimit:10;" d="M 2588.90625 942.071875 L 2583.554688 922.071875 L 2594.257812 922.071875 Z M 2588.90625 942.071875 " transform="matrix(0.1,0,0,-0.1,0,107.34)"/>
<path style="fill:none;stroke-width:35.9939;stroke-linecap:round;stroke-linejoin:round;stroke:rgb(54.492188%,0%,0%);stroke-opacity:1;stroke-miterlimit:10;" d="M 3153.554688 377.423438 L 3153.554688 377.423438 " transform="matrix(0.1,0,0,-0.1,0,107.34)"/>
<path style="fill:none;stroke-width:35.9939;stroke-linecap:round;stroke-linejoin:round;stroke:rgb(54.492188%,0%,0%);stroke-opacity:1;stroke-miterlimit:10;" d="M 2730.078125 800.9 L 2730.078125 800.9 " transform="matrix(0.1,0,0,-0.1,0,107.34)"/>
<path style="fill:none;stroke-width:23.9959;stroke-linecap:round;stroke-linejoin:round;stroke:rgb(54.492188%,0%,0%);stroke-opacity:1;stroke-miterlimit:10;" d="M 2659.492188 306.8375 L 2659.492188 306.8375 " transform="matrix(0.1,0,0,-0.1,0,107.34)"/>
<path style="fill:none;stroke-width:23.9959;stroke-linecap:round;stroke-linejoin:round;stroke:rgb(54.492188%,0%,0%);stroke-opacity:1;stroke-miterlimit:10;" d="M 3247.65625 895.001563 L 3247.65625 895.001563 " transform="matrix(0.1,0,0,-0.1,0,107.34)"/>
<g style="fill:rgb(0%,0%,0%);fill-opacity:1;">
  <use xlink:href="#glyph0-1" x="97.0801" y="91.9798"/>
</g>
<g style="fill:rgb(0%,0%,0%);fill-opacity:1;">
  <use xlink:href="#glyph0-2" x="26.2801" y="7.2599"/>
</g>
<g style="fill:rgb(0%,0%,0%);fill-opacity:1;">
  <use xlink:href="#glyph0-1" x="214.8001" y="91.9798"/>
</g>
<g style="fill:rgb(0%,0%,0%);fill-opacity:1;">
  <use xlink:href="#glyph0-2" x="144.0001" y="7.2599"/>
</g>
<g style="fill:rgb(0%,0%,0%);fill-opacity:1;">
  <use xlink:href="#glyph0-1" x="332.4001" y="91.9798"/>
</g>
<g style="fill:rgb(0%,0%,0%);fill-opacity:1;">
  <use xlink:href="#glyph0-2" x="261.6001" y="7.2599"/>
</g>
</g>
</svg>
